!!!!SEGMENT: pl-kozmzk--mzk-m-159--002_walczynski-franciszek--praeludia-organi-op-5-allegro.krn
!!!cenid: 18xx:2745
!!!COM: Walczyński, Franciszek
!!!COM-rismid: pe30021989
!!!CDT: ~1852-1937
!!!CNT: Polish
!!!GTL: Praeludia organi op. 5
!!!OTL: 2. Allegro
!!!PDT: 1894
!!!AGN: Secular; Prelude
!!!SMS-siglum: PL-KOZmzk
!!!SMS-shelfmark: mzk/m/159
!!!SMS-shelfwork: 002 G
!!!SMS-variant:
!!!SMS-altvar:
!!!NIFC-rismid: 1001116608
!!!URL-scan: https://repozytorium.nifc.pl/islandora/object/pl-kozmzk%3A2265/datastream/PDF/view
!!!ONB-nifc: UWAGA: numeracja plików zgodna z numeracją źrodłową
!!!OMD: 2. Allegro
!!!AIN: 2 empty
!!!key:
**kern	**kern	**dynam
*part2	*part1	*part1
*staff2	*staff1	*
*Iempty	*Iempty	*
*I"	*I"	*
*clefF4	*clefG2	*
*k[]	*k[]	*
*C:	*C:	*
*M3/4	*M3/4	*
=1	=1	=1
*	*^	*
2.r	([2.gg/	4r	f
.	.	(4ee\ 4cc\	<
.	.	4dd\ 4b\	.
=2	=2	=2	=2
2.r	4gg/]	4dd-X\ 4b-X\	[
.	4ff/	4cc\ 4a\	>
.	4ee/)	4bn\ 4g\	.
=3	=3	=3	=3
2.r	(4dd/	4a\ 4f\	]
.	4ee/	2a-X\ 2f\	<
.	4dd/	.	.
=4	=4	=4	=4
*	*	*^	*
2.r	2gg/	4cc\	2g\ 2e\	.
.	.	4b\	.	.
.	4ff/)	[4dd\	4an\ 4f\	[[
=5	=5	=5	=5	=5
4r	(2ee/	4dd\])	2g\	.
!LO:TX:b:i:t=Ped.	!	!	!	!LO:DY:b=2
(4G\	.	4cc\	.	f
4G#X\	4dd/	4b\ 4f\	4ryy	.
*	*	*v	*v	*
=6	=6	=6	=6
4A\	2cc/	2a\ 2e\	.
4Gn\	.	.	.
4F\	4dd/	(4cc\ [4a\	.
=7	=7	=7	=7
2.E\)	2.ee/ 2.b/	4a\]	.
.	.	4g#X\	.
.	.	4f#X\)	.
=8	=8	=8	=8
*^	*	*	*
!	!	!LO:SIC:v:n=3:s=2.g#	!	!
2.e/	2.E;\	2.ee/ 2.b;/)	2.g\	ff
=9	=9	=9	=9	=9
*	*	*	*	*above
!LO:TX:b:i:t=Man.	!	!	!	!
(2.A/	(4D\	(2.f/	[2.d\	pp <
.	4C#X\	.	.	.
.	4Cn\	.	.	[
=10	=10	=10	=10	=10
2.G/)	4BB\	2g/	4d\]	>
.	4AA\	.	4c\	.
.	4GG\)	4f/	4B\	]]
=11	=11	=11	=11	=11
(2.G/	(4C\	2.e/	2.c\	<
.	4BB\	.	.	.
.	4BB-X\	.	.	[
=12	=12	=12	=12	=12
4F/	2.AA\)	2f/	2c\	[ >
4A/	.	.	.	.
4G/)	.	4e/)	4c#X\	]
=13	=13	=13	=13	=13
(2.A/	(4FF\	(2d/	(2d\	fp <
.	4EE\	.	.	.
.	4DD\	4f/	[4d\	.
=14	=14	=14	=14	=14
2G/	2.GG\)	2e/	4d\]	.
.	.	.	4c\	.
([4F/)	.	4d/)	4B\)	[
=15	=15	=15	=15	=15
!LO:TX:b:i:t=rit.	!	!	!	!
4F/]	[2.C\	[2.c/	[2.G\	pp >
4E/	.	.	.	.
4D/	.	.	.	.
=16	=16	=16	=16	=16
2.E/)	2.C;\]	2.c;/]	2.G\]	]
*v	*v	*	*	*
*	*v	*v	*
==	==	==
*-	*-	*-
!!!system-decoration: {(s1,s2)}
!!!EED: Andrzej Borzym
!!!EEV: 2021-08-08
!!!ENC: Krzysztof Stępień
!!!END: 2021-07-26
